collectives/static/img/icon/ionicon/ios-arrow-dropleft.svg

<svg enable-background="new 0 0 512 512" viewBox="0 0 512 512" xmlns="http://www.w3.org/2000/svg"><path d="m301.3 147.6c-7.5-7.5-19.8-7.5-27.3 0l-95.4 95.7c-7.3 7.3-7.5 19.1-.6 26.6l94 94.3c3.8 3.8 8.7 5.7 13.7 5.7 4.9 0 9.9-1.9 13.6-5.6 7.5-7.5 7.6-19.7 0-27.3l-79.8-81 81.9-81.1c7.5-7.5 7.5-19.7-.1-27.3z"/><path d="m256 48c-114.9 0-208 93.1-208 208s93.1 208 208 208 208-93.1 208-208-93.1-208-208-208zm124.4 332.4c-33.2 33.3-77.4 51.6-124.4 51.6s-91.2-18.3-124.4-51.6c-33.3-33.2-51.6-77.4-51.6-124.4s18.3-91.2 51.6-124.4c33.2-33.3 77.4-51.6 124.4-51.6s91.2 18.3 124.4 51.6c33.3 33.2 51.6 77.4 51.6 124.4s-18.3 91.2-51.6 124.4z"/></svg>

<?xml version="1.0" encoding="utf-8"?>
<!-- Generator: Adobe Illustrator 22.0.1, SVG Export Plug-In . SVG Version: 6.00 Build 0)  -->
<svg version="1.1" id="Layer_1" xmlns="http://www.w3.org/2000/svg" xmlns:xlink="http://www.w3.org/1999/xlink" x="0px" y="0px"
	 viewBox="0 0 512 512" style="enable-background:new 0 0 512 512;" xml:space="preserve">
<g>
	<path d="M301.3,147.6c-7.5-7.5-19.8-7.5-27.3,0l-95.4,95.7c-7.3,7.3-7.5,19.1-0.6,26.6l94,94.3c3.8,3.8,8.7,5.7,13.7,5.7
		c4.9,0,9.9-1.9,13.6-5.6c7.5-7.5,7.6-19.7,0-27.3L219.5,256l81.9-81.1C308.9,167.4,308.9,155.2,301.3,147.6z"/>
	<path d="M256,48C141.1,48,48,141.1,48,256s93.1,208,208,208c114.9,0,208-93.1,208-208S370.9,48,256,48z M380.4,380.4
		C347.2,413.7,303,432,256,432c-47,0-91.2-18.3-124.4-51.6C98.3,347.2,80,303,80,256c0-47,18.3-91.2,51.6-124.4
		C164.8,98.3,209,80,256,80c47,0,91.2,18.3,124.4,51.6C413.7,164.8,432,209,432,256S413.7,347.2,380.4,380.4z"/>
</g>
</svg>
